src/media/icons/discord.svg

<svg width="25" height="25" viewBox="0 0 25 25" fill="none" xmlns="http://www.w3.org/2000/svg">
<path d="M3.83645 4.32862C5.42986 3.59749 7.13856 3.05883 8.92511 2.75032C8.95764 2.74436 8.99014 2.75924 9.0069 2.789C9.22666 3.17985 9.47007 3.68975 9.64053 4.09052C11.5621 3.80285 13.4738 3.80285 15.3559 4.09052C15.5264 3.68084 15.7787 3.17985 15.9994 2.789C16.0162 2.76024 16.0487 2.74536 16.0812 2.75032C17.8668 3.05785 19.5755 3.59651 21.1699 4.32862C21.1837 4.33457 21.1955 4.3445 21.2033 4.35739C24.4444 9.19943 25.3322 13.9225 24.8967 18.5869C24.8947 18.6097 24.8819 18.6316 24.8642 18.6455C22.7258 20.2158 20.6545 21.1691 18.6216 21.8011C18.589 21.811 18.5546 21.7991 18.5339 21.7723C18.053 21.1156 17.6243 20.4232 17.2568 19.695C17.2351 19.6524 17.2558 19.6018 17.3001 19.5849C17.9801 19.327 18.6275 19.0125 19.2503 18.6554C19.2995 18.6266 19.3035 18.5562 19.2582 18.5224C19.1271 18.4242 18.996 18.322 18.8709 18.2189C18.8482 18.2 18.8167 18.1961 18.7901 18.208C14.6987 20.0759 10.2692 20.0759 6.22609 18.208C6.19947 18.1951 6.16792 18.199 6.1443 18.2179C6.01912 18.3211 5.88806 18.4242 5.75602 18.5224C5.7107 18.5562 5.71366 18.6266 5.76292 18.6554C6.38571 19.0194 7.03314 19.327 7.71405 19.5839C7.75838 19.6008 7.7781 19.6524 7.75641 19.695C7.38099 20.4221 6.95232 21.1146 6.48032 21.7713C6.4606 21.7991 6.42514 21.811 6.39261 21.8011C4.34986 21.1691 2.27852 20.2158 0.140177 18.6455C0.121445 18.6316 0.109615 18.6107 0.107643 18.5879C-0.413625 13.1953 0.980741 8.51098 3.80395 4.35837C3.81085 4.3445 3.82264 4.33457 3.83645 4.32862ZM16.6458 15.7468C17.8776 15.7468 18.8926 14.6159 18.8926 13.227C18.8926 11.8382 17.8973 10.7073 16.6458 10.7073C15.3845 10.7073 14.3794 11.8481 14.3991 13.227C14.3991 14.6159 15.3944 15.7468 16.6458 15.7468ZM8.3388 15.7468C9.57057 15.7468 10.5855 14.6159 10.5855 13.227C10.5855 11.8382 9.59028 10.7073 8.3388 10.7073C7.07747 10.7073 6.07236 11.8481 6.09204 13.227C6.09204 14.6159 7.07747 15.7468 8.3388 15.7468Z" fill="white"/>
</svg>

<svg xmlns="http://www.w3.org/2000/svg" fill="none" viewBox="0 0 25 25">
    <path fill="#fff"
        d="M3.836 4.329a20.616 20.616 0 0 1 5.09-1.579.077.077 0 0 1 .08.039c.22.39.464.9.635 1.302a19.033 19.033 0 0 1 5.715 0c.17-.41.423-.911.643-1.302a.08.08 0 0 1 .082-.039c1.786.308 3.495.847 5.089 1.579a.072.072 0 0 1 .033.028c3.241 4.842 4.13 9.566 3.694 14.23a.086.086 0 0 1-.033.058 20.735 20.735 0 0 1-6.242 3.156.08.08 0 0 1-.088-.029 14.723 14.723 0 0 1-1.277-2.077.08.08 0 0 1 .043-.11 13.65 13.65 0 0 0 1.95-.93.08.08 0 0 0 .008-.133 10.68 10.68 0 0 1-.387-.303.077.077 0 0 0-.08-.011c-4.092 1.868-8.522 1.868-12.565 0a.077.077 0 0 0-.082.01 9.938 9.938 0 0 1-.388.304.08.08 0 0 0 .007.133c.623.364 1.27.672 1.951.929a.08.08 0 0 1 .042.111 16.64 16.64 0 0 1-1.276 2.076.08.08 0 0 1-.087.03A20.666 20.666 0 0 1 .14 18.646a.08.08 0 0 1-.032-.058C-.414 13.195.98 8.51 3.804 4.358a.064.064 0 0 1 .032-.03Zm12.81 11.418c1.232 0 2.247-1.131 2.247-2.52s-.996-2.52-2.247-2.52c-1.262 0-2.267 1.141-2.247 2.52 0 1.389.995 2.52 2.247 2.52Zm-8.307 0c1.232 0 2.246-1.131 2.246-2.52s-.995-2.52-2.246-2.52c-1.262 0-2.267 1.141-2.247 2.52 0 1.389.985 2.52 2.247 2.52Z" />
</svg>
